!!!!SEGMENT: pl-kozmzk--mzk-m-159--034_walczynski-franciszek--praeludia-organi-op-5-allegro-moderato.krn
!!!cenid: 18xx:2777
!!!COM: Walczyński, Franciszek
!!!COM-rismid: pe30021989
!!!CDT: ~1852-1937
!!!CNT: Polish
!!!GTL: Praeludia organi op. 5
!!!OTL: 34. Allegro moderato
!!!PDT: 1894
!!!AGN: Secular; Prelude
!!!SMS-siglum: PL-KOZmzk
!!!SMS-shelfmark: mzk/m/159
!!!SMS-shelfwork: 034 G
!!!SMS-variant:
!!!SMS-altvar:
!!!NIFC-rismid: 1001118836
!!!URL-scan: https://repozytorium.nifc.pl/islandora/object/pl-kozmzk%3A2265/datastream/PDF/view
!!!ONB-nifc: UWAGA: numeracja plików zgodna z numeracją źrodłową
!!!OMD: 34. Allegro moderato.
!!!AIN: 1 empty 1 organ
!!!key:
**kern	**kern	**dynam
*part2	*part1	*part1
*staff2	*staff1	*
*Iorgan	*Iempty	*
*I"[Organo]	*	*
*clefF4	*clefG2	*
*k[b-e-a-]	*k[b-e-a-]	*
*A-:	*A-:	*
*M3/4	*M3/4	*
=1	=1	=1
*^	*^	*
2.r	(8E-\L	2.r	2.r	p
.	8D\)	.	.	.
.	8E-'\	.	.	.
.	8F'\	.	.	.
.	8G'\	.	.	.
.	8A-'\J	.	.	.
=2	=2	=2	=2	=2
2.r	(4B-\	2.r	2.r	.
.	4G\)	.	.	.
.	4E-\	.	.	.
=3	=3	=3	=3	=3
(8B-/L	(8D\L	2.r	2.r	.
8An/)	8C\)	.	.	.
8B-'/	8D'\	.	.	.
8c'/	8E-'\	.	.	.
8d'/	8F'\	.	.	.
8e-'/J	8G'\J	.	.	.
=4	=4	=4	=4	=4
(4f/	(4A-\	2.r	2.r	.
4d/)	4F\	.	.	.
(8B-/L	4F\)	.	.	.
8A-X/J)	.	.	.	.
=5	=5	=5	=5	=5
!	!	!	!	!LO:DY:a
(8G/L	[2.E-\	2.r	(8e-\L	p
8F/)	.	.	8d\)	.
8G'/	.	.	8e-'\	.
8A-'/	.	.	8f'\	.
8B-'/	.	.	8g'\	.
8c'/J	.	.	8a-'\J	.
=6	=6	=6	=6	=6
2.d-X/	2.E-\_	2.r	4b-\	.
.	.	.	4g\	.
.	.	.	4e-\	.
=7	=7	=7	=7	=7
(8c/L	2.E-\_	(8a-/L	2.e-\	.
8B-/)	.	8g/)	.	.
8c'/	.	8a-'/	.	.
8G'/	.	8b-'/	.	.
8A-'/	.	8cc'/	.	.
8B-'/J	.	8dd-X'/J	.	.
!!LO:PB:g=original
=8	=8	=8	=8	=8
4c/	2.E-\]	(4ee-/	2a-\	.
4e-/	.	4cc/)	.	.
4c/	.	4a-/	4e-\	.
=9	=9	=9	=9	=9
2.dn/	[2.A-\	(8b-/L	[2.f\	f
.	.	8an/)	.	.
.	.	8b-'/	.	.
.	.	8cc'/	.	.
.	.	8ddn'/	.	.
.	.	8ee-'/J	.	.
=10	=10	=10	=10	=10
(8B-/L	2.A-\]	(4ff/	2.f\]	.
8An/)	.	.	.	.
8B-'/	.	4dd/	.	.
8c'/	.	.	.	.
8d'/	.	4b-/	.	.
8B-'/J	.	.	.	.
=11	=11	=11	=11	=11
2.B-/	(4G\	4ee-/	2.e-\	.
.	2G-X\)	4cc/	.	.
.	.	4b-/)	.	.
=12	=12	=12	=12	=12
(8c/L	2.F\	(4b-/	(2e-\	>
8Bn/)	.	.	.	.
8c'/	.	4an/	.	.
8e-'/	.	.	.	.
8d'/	.	4a-X/	4f\	.
([8c'/J	.	.	.	.
=13	=13	=13	=13	=13
4c/]	2.G;\	2.g;/)	2.d\)	.
8Bn/L	.	.	.	]
8An/J	.	.	.	.
4B;/)	.	.	.	.
=14	=14	=14	=14	=14
2.rBB	2.r	(8g/L	2.r	pp
.	.	8f#X/)	.	.
.	.	8g'/	.	.
.	.	8an'/	.	.
.	.	8bn'/	.	.
.	.	8cc'/J	.	.
=15	=15	=15	=15	=15
2.rBB	2.r	(4dd/	2.r	.
.	.	4bn/)	.	.
.	.	4g/	.	.
!!LO:LB:g=original
=16	=16	=16	=16	=16
(8c/L	2.r	(2.ee-/	2g\	fp
8Bn/)	.	.	.	.
8c'/	.	.	.	.
8d'/	.	.	.	.
8e-'/	.	.	[4cc\	.
8c'/J	.	.	.	.
=17	=17	=17	=17	=17
2.g/	2.r;	2.dd;/)	4cc\]	.
.	.	.	8bn\L	.
.	.	.	8an\J	.
.	.	.	4b;\	.
=18	=18	=18	=18	=18
[2.g/	(8E-\L	[2.ee-/	[2.b-X\	ff
.	8D\)	.	.	.
.	8E-'\	.	.	.
.	8F'\	.	.	.
.	8G'\	.	.	.
.	8A-'\J	.	.	.
=19	=19	=19	=19	=19
2.g/]	(4B-\	2.ee-/]	2.b-\]	.
.	4G\)	.	.	.
.	4E-\	.	.	.
=20	=20	=20	=20	=20
2f/	4A-\	(2.ff/	(8cc\L	.
.	.	.	8bn\	.
.	4F\	.	8cc\	.
.	.	.	8ee-\	.
4B-/	4B-\	.	8dd\	.
.	.	.	8a-\J	.
=21	=21	=21	=21	=21
4B-/	[2.E-\	2.ee-^/)	2.g\)	.
8c/L	.	.	.	.
8d/	.	.	.	.
8e-/	.	.	.	.
8d/J	.	.	.	.
=22	=22	=22	=22	=22
([2.d-X/	2.E-\_	[2.ee-/	(4b-\	p
.	.	.	8cc\L	.
.	.	.	8b-\	.
.	.	.	8a-\	.
.	.	.	8g\J	.
=23	=23	=23	=23	=23
4d-/]	2.E-\]	2.ee-/]	4b-\	.
8c/L	.	.	2a-\)	.
8Bn/	.	.	.	.
8c/	.	.	.	.
8A-/J)	.	.	.	.
!!LO:LB:g=original
=24	=24	=24	=24	=24
(4c-X/	[2.E-\	[2.ee-/	(4a-\	.
4A-/	.	.	8b-\L	.
.	.	.	8a-\	.
4c-/	.	.	8g\	.
.	.	.	8f\J	.
=25	=25	=25	=25	=25
4c-X/	2.E-\]	2.ee-/]	4a-\	.
8B-/L	.	.	2g\)	.
8An/	.	.	.	.
8B-/	.	.	.	.
8G/J)	.	.	.	.
=26	=26	=26	=26	=26
!LO:TX:b:i:t=Ped.	!	!	!	!
4EE-/	[2.EE-\	[2.e-/	4d-\	pp
(8FF/L	.	.	8c\L	.
8GG/	.	.	8B-\	.
8AA-/	.	.	8A-\	.
8BB-/J	.	.	8G\J	.
=27	=27	=27	=27	=27
2C/	2.EE-\]	2.e-/]	4B-\	.
.	.	.	[2A-\	.
[4C-X/)	.	.	.	.
=28	=28	=28	=28	=28
(2.C-X/]	[2.EE-\	(4a-/	(2.A-\]	.
.	.	8f/L	.	.
.	.	8e-/	.	.
.	.	8dn/	.	.
.	.	8f/J	.	.
=29	=29	=29	=29	=29
4BB-/)	2.EE-\]	2.e-/)	2.G\)	.
(4AAn/	.	.	.	.
4BB-/	.	.	.	.
=30	=30	=30	=30	=30
4Cn/	([2.EE-\	[2.e-/	(4A-\	.
4BB-/	.	.	4G\	.
4AA-X/	.	.	4F\	.
=31	=31	=31	=31	=31
!	!	!LO:TX:a:i:t=rit.	!	!
2.C/	2.EE-\_	2.e-/_	2.A-\	.
=32	=32	=32	=32	=32
2.BB-/)	2.EE-;\])	2.e-;/]	2.G\)	.
*v	*v	*	*	*
*	*v	*v	*
==	==	==
*-	*-	*-
!!!system-decoration: {(s1,s2)}
!!!EED: Andrzej Borzym
!!!EEV: 2021-08-08
!!!ENC: Krzysztof Stępień
!!!END: 2021-07-26
